src/assets/outline/RefreshRightSquare.svg

<svg width="24" height="24" viewBox="0 0 24 24"  xmlns="http://www.w3.org/2000/svg">
<path d="M15 22.75H9C3.57 22.75 1.25 20.43 1.25 15V9C1.25 3.57 3.57 1.25 9 1.25H15C20.43 1.25 22.75 3.57 22.75 9V15C22.75 20.43 20.43 22.75 15 22.75ZM9 2.75C4.39 2.75 2.75 4.39 2.75 9V15C2.75 19.61 4.39 21.25 9 21.25H15C19.61 21.25 21.25 19.61 21.25 15V9C21.25 4.39 19.61 2.75 15 2.75H9Z" />
<path d="M12 18.01C8.83 18.01 6.25 15.43 6.25 12.26C6.25 9.09001 8.83 6.51001 12 6.51001C12.64 6.51001 13.28 6.60001 13.89 6.79001C14.29 6.91001 14.51 7.33001 14.39 7.73001C14.27 8.13001 13.85 8.35001 13.45 8.23001C12.99 8.09001 12.5 8.02 12 8.02C9.66 8.02 7.75 9.93 7.75 12.27C7.75 14.61 9.66 16.52 12 16.52C14.34 16.52 16.25 14.61 16.25 12.27C16.25 11.42 16 10.61 15.54 9.91001C15.31 9.57001 15.4 9.10001 15.75 8.87001C16.09 8.64001 16.56 8.73001 16.79 9.08001C17.42 10.03 17.76 11.13 17.76 12.27C17.75 15.44 15.17 18.01 12 18.01Z" />
<path d="M14.3802 8.39996C14.1702 8.39996 13.9602 8.30996 13.8102 8.13996L12.1402 6.22996C11.8702 5.91996 11.9002 5.43995 12.2102 5.16995C12.5202 4.89995 13.0002 4.92995 13.2702 5.23995L14.9402 7.14996C15.2102 7.45996 15.1802 7.93996 14.8702 8.20996C14.7302 8.33996 14.5602 8.39996 14.3802 8.39996Z" />
<path d="M12.4399 9.81986C12.2099 9.81986 11.9799 9.70986 11.8299 9.50986C11.5899 9.17986 11.6599 8.70986 11.9899 8.45986L13.9299 7.03986C14.2599 6.79986 14.7299 6.86986 14.9799 7.19986C15.2199 7.52986 15.1499 7.99986 14.8199 8.24986L12.8799 9.66986C12.7499 9.76986 12.5899 9.81986 12.4399 9.81986Z" />
</svg>

<?xml version="1.0" encoding="UTF-8"?>
<svg width="24" height="24" viewBox="0 0 24 24" xmlns="http://www.w3.org/2000/svg">
 <path d="m15 22.75h-6c-5.43 0-7.75-2.32-7.75-7.75v-6c0-5.43 2.32-7.75 7.75-7.75h6c5.43 0 7.75 2.32 7.75 7.75v6c0 5.43-2.32 7.75-7.75 7.75zm-6-20c-4.61 0-6.25 1.64-6.25 6.25v6c0 4.61 1.64 6.25 6.25 6.25h6c4.61 0 6.25-1.64 6.25-6.25v-6c0-4.61-1.64-6.25-6.25-6.25h-6z"/>
 <path d="m12 18.01c-3.17 0-5.75-2.58-5.75-5.75 0-3.17 2.58-5.75 5.75-5.75 0.64 0 1.28 0.09 1.89 0.28 0.4 0.12 0.62 0.54 0.5 0.94s-0.54 0.62-0.94 0.5c-0.46-0.14-0.95-0.21001-1.45-0.21001-2.34 0-4.25 1.91-4.25 4.25s1.91 4.25 4.25 4.25 4.25-1.91 4.25-4.25c0-0.85-0.25-1.66-0.71-2.36-0.23-0.34-0.14-0.81 0.21-1.04 0.34-0.23 0.81-0.14 1.04 0.21 0.63 0.94999 0.97 2.05 0.97 3.19-0.01 3.17-2.59 5.74-5.76 5.74z"/>
 <path d="m14.38 8.4c-0.21 0-0.42-0.09-0.57-0.26l-1.67-1.91c-0.27-0.31-0.24-0.79001 0.07-1.06s0.79-0.24 1.06 0.07l1.67 1.91c0.27 0.31 0.24 0.79-0.07 1.06-0.14 0.13-0.31 0.19-0.49 0.19z"/>
 <path d="m12.44 9.8199c-0.23 0-0.46-0.11-0.61-0.31-0.24-0.33-0.17-0.8 0.16-1.05l1.94-1.42c0.33-0.24 0.8-0.17 1.05 0.16 0.24 0.33 0.17 0.8-0.16 1.05l-1.94 1.42c-0.13 0.1-0.29 0.15-0.44 0.15z"/>
</svg>
